src/symbols/alphanum/1F195.svg

<svg id="emoji" viewBox="0 0 72 72" xmlns="http://www.w3.org/2000/svg">
  <g id="grid">
    <path fill="#b3b3b3" d="M68,4V68H4V4H68m4-4H0V72H72V0Z"/>
    <path fill="none" stroke="#00a5ff" stroke-miterlimit="10" stroke-width="0.1" d="M12.923,10.9583H59.0769A1.9231,1.9231,0,0,1,61,12.8814V59.0352a1.9231,1.9231,0,0,1-1.9231,1.9231H12.9231A1.9231,1.9231,0,0,1,11,59.0352V12.8813A1.923,1.923,0,0,1,12.923,10.9583Z"/>
    <rect x="16" y="4" rx="2.2537" width="40" height="64" fill="none" stroke="#00a5ff" stroke-miterlimit="10" stroke-width="0.1"/>
    <rect x="16" y="4" rx="2.2537" width="40" height="64" transform="translate(72) rotate(90)" fill="none" stroke="#00a5ff" stroke-miterlimit="10" stroke-width="0.1"/>
    <circle cx="36" cy="36" r="29" fill="none" stroke="#00a5ff" stroke-miterlimit="10" stroke-width="0.1"/>
  </g>
  <g id="color">
    <path fill="#d0cfce" stroke="none" stroke-miterlimit="10" stroke-width="2" d="M59.0349,60H12.9651 C12.4343,60,12,59.5657,12,59.0349V12.9651C12,12.4343,12.4343,12,12.9651,12h46.0698C59.5657,12,60,12.4343,60,12.9651v46.0698 C60,59.5657,59.5657,60,59.0349,60z"/>
  </g>
  <g id="hair"/>
  <g id="skin"/>
  <g id="skin-shadow"/>
  <g id="line">
    <path fill="none" stroke="#000000" stroke-miterlimit="10" stroke-width="2" d="M59.0349,60H12.9651 C12.4343,60,12,59.5657,12,59.0349V12.9651C12,12.4343,12.4343,12,12.9651,12h46.0698C59.5657,12,60,12.4343,60,12.9651v46.0698 C60,59.5657,59.5657,60,59.0349,60z"/>
    <polyline fill="none" stroke="#000000" stroke-linecap="round" stroke-linejoin="round" stroke-miterlimit="10" stroke-width="2" points="37.4857,32.4699 32.9143,32.4699 32.9143,40.4699 37.4857,40.4699"/>
    <line x1="32.9143" x2="36.3429" y1="36.4699" y2="36.4699" fill="none" stroke="#000000" stroke-linecap="round" stroke-linejoin="round" stroke-miterlimit="10" stroke-width="2"/>
    <polyline fill="none" stroke="#000000" stroke-linecap="round" stroke-linejoin="round" stroke-miterlimit="10" stroke-width="2" points="23,40.4699 23,32.4699 28.7143,40.4699 28.7143,32.4699"/>
    <polyline fill="none" stroke="#000000" stroke-linecap="round" stroke-linejoin="round" stroke-miterlimit="10" stroke-width="2" points="50,32.4699 47.7143,40.4699 45.4286,32.4699 43.1429,40.4699 40.8571,32.4699"/>
  </g>
</svg>

<svg id="emoji" version="1.1" viewBox="0 0 72 72" xmlns="http://www.w3.org/2000/svg">
 <g id="grid">
  <path d="m68 4v64h-64v-64h64m4-4h-72v72h72z" fill="#b3b3b3"/>
  <path d="m12.92 10.96h46.15a1.923 1.923 0 0 1 1.923 1.923v46.15a1.923 1.923 0 0 1-1.923 1.923h-46.15a1.923 1.923 0 0 1-1.923-1.923v-46.15a1.923 1.923 0 0 1 1.923-1.923z" fill="none" stroke="#00a5ff" stroke-miterlimit="10" stroke-width=".1"/>
  <rect x="16" y="4" width="40" height="64" rx="2.254" fill="none" stroke="#00a5ff" stroke-miterlimit="10" stroke-width=".1"/>
  <rect transform="rotate(90,36,36)" x="16" y="4" width="40" height="64" rx="2.254" fill="none" stroke="#00a5ff" stroke-miterlimit="10" stroke-width=".1"/>
  <circle cx="36" cy="36" r="29" fill="none" stroke="#00a5ff" stroke-miterlimit="10" stroke-width=".1"/>
 </g>
 <g id="color" transform="translate(-.0006922 -.01378)" stroke="#d22f27">
  <rect x="12" y="12.01" width="48" height="47.83" ry="5" fill="#fff" stroke-width="0"/>
 </g>
 <g id="line-supplement" transform="translate(-.0006922 -.01378)" fill="none" stroke="#d22f27">
  <path d="m37.52 30.36h-6.46v11.3h6.46" clip-rule="evenodd" stroke-linecap="round" stroke-linejoin="round" stroke-miterlimit="10" stroke-width="3.23px"/>
  <path d="m31.06 36.02h4.845" clip-rule="evenodd" stroke-linecap="round" stroke-linejoin="round" stroke-miterlimit="10" stroke-width="3.23px"/>
  <path d="m17.12 41.67v-11.3l8.075 11.3v-11.3" clip-rule="evenodd" stroke-linecap="round" stroke-linejoin="round" stroke-miterlimit="10" stroke-width="3.23px"/>
  <path d="m55.29 30.36-3.23 11.3-3.232-11.3-3.23 11.3-3.23-11.3" clip-rule="evenodd" stroke-linecap="round" stroke-linejoin="round" stroke-miterlimit="10" stroke-width="3.23px"/>
  <rect x="12" y="12.01" width="48" height="47.83" ry="5" stroke-width="2"/>
 </g>
</svg>
